X: 17066
T: Heathery Cruach, The
R: reel
M: 4/4
K: Dmajor
d2 AG FDA,D|FAGF DE (3EEE|d2 AG FDA,D|FAGE Dgfe|
d2 AG FDA,D|FAGF ED (3EFG|A2 GE FDDF|FAGE DEFA:|
c2 cB cAEA|cBcd e2 ed|BccB cBAG|FAGE DEFA|
c2 cB cAEA|cBcd e2 ea|f2 ed cAed|cAGE DEFA:|

